src/components/00-materials/images-raw/Repairs.svg

<svg width="96" height="96" viewBox="0 0 96 96" fill="none" xmlns="http://www.w3.org/2000/svg">
<path d="M89.9595 28.684C89.853 27.4508 89.6517 26.2277 89.3573 25.0254L76.3137 40.7277L58.6571 40.2391L52.7602 21.5259L68.2239 6.13036C66.5947 5.9406 64.9507 5.91016 63.3155 6.03946C60.0814 6.28656 56.9278 7.16878 54.0349 8.63565C51.142 10.1025 48.5667 12.1253 46.4562 14.5883C44.3457 17.0512 42.7414 19.9061 41.7351 22.9896C40.7287 26.073 40.3402 29.3246 40.5915 32.5584C40.8436 35.7677 41.7279 38.8954 43.1934 41.7617L6.994 77.7679C6.33417 78.4302 5.96368 79.327 5.96368 80.2619C5.96368 81.1968 6.33417 82.0935 6.994 82.7558L13.2658 89.0049C13.9339 89.6669 14.8364 90.0382 15.7768 90.0382C16.7173 90.0382 17.6198 89.6669 18.2878 89.0049L54.4759 52.976C54.4759 52.976 54.5441 52.8851 54.5895 52.851C58.5033 54.7262 62.8413 55.5392 67.1685 55.2084C71.4957 54.8776 75.6598 53.4146 79.243 50.9663C82.8262 48.518 85.7026 45.1705 87.5836 41.2595C89.4645 37.3485 90.2839 33.0116 89.9595 28.684V28.684ZM17.697 82.165C17.4458 82.4168 17.1474 82.6166 16.8189 82.7529C16.4904 82.8892 16.1382 82.9594 15.7825 82.9594C15.4268 82.9594 15.0747 82.8892 14.7461 82.7529C14.4176 82.6166 14.1192 82.4168 13.868 82.165C13.6169 81.9158 13.4176 81.6193 13.2816 81.2926C13.1456 80.966 13.0755 80.6157 13.0755 80.2619C13.0755 79.9081 13.1456 79.5577 13.2816 79.2311C13.4176 78.9045 13.6169 78.608 13.868 78.3587C14.3783 77.8557 15.066 77.5737 15.7825 77.5737C16.499 77.5737 17.1868 77.8557 17.697 78.3587C17.9481 78.608 18.1475 78.9045 18.2835 79.2311C18.4195 79.5577 18.4895 79.9081 18.4895 80.2619C18.4895 80.6157 18.4195 80.966 18.2835 81.2926C18.1475 81.6193 17.9481 81.9158 17.697 82.165V82.165Z" stroke="#00008F" stroke-width="2" stroke-linecap="round" stroke-linejoin="round"/>
</svg>

<svg width="96" height="96" viewBox="0 0 96 96" fill="none" xmlns="http://www.w3.org/2000/svg"><path d="M89.96 28.684a24.101 24.101 0 00-.603-3.659L76.314 40.728l-17.657-.489-5.897-18.713L68.224 6.13c-1.63-.19-3.273-.22-4.909-.09a24.678 24.678 0 00-22.723 26.518 24.417 24.417 0 002.601 9.204L6.994 77.768a3.534 3.534 0 000 4.988l6.272 6.249a3.568 3.568 0 005.022 0l36.188-36.029s.068-.09.114-.125a24.746 24.746 0 0035.37-24.167v0zM17.697 82.165a2.704 2.704 0 01-3.829 0 2.68 2.68 0 010-3.806 2.727 2.727 0 013.829 0 2.683 2.683 0 010 3.806v0z" stroke="#00008F" stroke-width="2" stroke-linecap="round" stroke-linejoin="round"/></svg>
